icon-themes/breeze_svg/cmd/lc_ok.svg

<svg viewBox="0 0 24 24" xmlns="http://www.w3.org/2000/svg"><path d="m19.292969 6-10.4394534 10.566406-4.1464844-4.197265-.7070312.714843 4.1464844 4.197266-.0019532.003906.7070313.714844.0019531-.001953.0019532.001953.7070312-.714844-.0019531-.003906 10.4394531-10.5664062z" fill="#4d4d4d"/></svg>

<svg xmlns="http://www.w3.org/2000/svg" viewBox="0 0 24 24">
 <path 
     style="fill:#4d4d4d" 
     d="M 19.292969 6 L 8.8535156 16.566406 L 4.7070312 12.369141 L 4 13.083984 L 8.1464844 17.28125 L 8.1445312 17.285156 L 8.8515625 18 L 8.8535156 17.998047 L 8.8554688 18 L 9.5625 17.285156 L 9.5605469 17.28125 L 20 6.7148438 L 19.292969 6 z "
     />
 </svg>
